images/3235076.svg

<?xml version="1.0" encoding="UTF-8"?>
<svg xmlns="http://www.w3.org/2000/svg" xmlns:xlink="http://www.w3.org/1999/xlink" width="300pt" height="300pt" viewBox="0 0 300 300" version="1.1">
<defs>
<g>
<symbol overflow="visible" id="glyph0-0">
<path style="stroke:none;" d="M 0.546875 1.9375 L 0.546875 -7.75 L 6.046875 -7.75 L 6.046875 1.9375 Z M 1.171875 1.328125 L 5.4375 1.328125 L 5.4375 -7.140625 L 1.171875 -7.140625 Z M 1.171875 1.328125 "/>
</symbol>
<symbol overflow="visible" id="glyph0-1">
<path style="stroke:none;" d="M 1.078125 -8.015625 L 2.546875 -8.015625 L 6.09375 -1.3125 L 6.09375 -8.015625 L 7.15625 -8.015625 L 7.15625 0 L 5.6875 0 L 2.125 -6.703125 L 2.125 0 L 1.078125 0 Z M 1.078125 -8.015625 "/>
</symbol>
<symbol overflow="visible" id="glyph0-2">
<path style="stroke:none;" d="M 1.078125 -8.015625 L 5.6875 -8.015625 L 5.6875 -7.109375 L 2.171875 -7.109375 L 2.171875 -4.75 L 5.34375 -4.75 L 5.34375 -3.828125 L 2.171875 -3.828125 L 2.171875 0 L 1.078125 0 Z M 1.078125 -8.015625 "/>
</symbol>
</g>
</defs>
<g id="surface35337">
<rect x="0" y="0" width="300" height="300" style="fill:rgb(100%,100%,100%);fill-opacity:1;stroke:none;"/>
<path style="fill:none;stroke-width:1.2;stroke-linecap:butt;stroke-linejoin:miter;stroke:rgb(0%,0%,0%);stroke-opacity:1;stroke-miterlimit:10;" d="M 35.25 164.789062 L 48.277344 160.558594 "/>
<path style="fill:none;stroke-width:1.2;stroke-linecap:butt;stroke-linejoin:miter;stroke:rgb(0%,0%,100%);stroke-opacity:1;stroke-miterlimit:10;" d="M 48.277344 160.558594 L 61.300781 156.332031 "/>
<path style="fill:none;stroke-width:1.2;stroke-linecap:butt;stroke-linejoin:miter;stroke:rgb(0%,0%,100%);stroke-opacity:1;stroke-miterlimit:10;" d="M 61.300781 156.332031 L 64.152344 142.933594 "/>
<path style="fill:none;stroke-width:1.2;stroke-linecap:butt;stroke-linejoin:miter;stroke:rgb(0%,0%,0%);stroke-opacity:1;stroke-miterlimit:10;" d="M 64.152344 142.933594 L 67.003906 129.539062 "/>
<path style="fill:none;stroke-width:1.2;stroke-linecap:butt;stroke-linejoin:miter;stroke:rgb(0%,0%,0%);stroke-opacity:1;stroke-miterlimit:10;" d="M 81.652344 174.664062 L 71.476562 165.496094 "/>
<path style="fill:none;stroke-width:1.2;stroke-linecap:butt;stroke-linejoin:miter;stroke:rgb(0%,0%,100%);stroke-opacity:1;stroke-miterlimit:10;" d="M 71.476562 165.496094 L 61.300781 156.332031 "/>
<path style=" stroke:none;fill-rule:nonzero;fill:rgb(100%,100%,100%);fill-opacity:1;" d="M 57.300781 149.832031 L 65.300781 149.832031 L 65.300781 162.832031 L 57.300781 162.832031 Z M 57.300781 149.832031 "/>
<g style="fill:rgb(0%,0%,100%);fill-opacity:1;">
  <use xlink:href="#glyph0-1" x="57.300781" y="159.733398"/>
</g>
<path style="fill:none;stroke-width:1.2;stroke-linecap:butt;stroke-linejoin:miter;stroke:rgb(0%,0%,0%);stroke-opacity:1;stroke-miterlimit:10;" d="M 67.003906 129.539062 L 93.054688 121.082031 "/>
<path style="fill:none;stroke-width:1.2;stroke-linecap:butt;stroke-linejoin:miter;stroke:rgb(0%,0%,0%);stroke-opacity:1;stroke-miterlimit:10;" d="M 93.054688 121.082031 L 103.230469 130.25 "/>
<path style="fill:none;stroke-width:1.2;stroke-linecap:butt;stroke-linejoin:miter;stroke:rgb(0%,0%,100%);stroke-opacity:1;stroke-miterlimit:10;" d="M 103.230469 130.25 L 113.40625 139.414062 "/>
<path style="fill:none;stroke-width:1.2;stroke-linecap:butt;stroke-linejoin:miter;stroke:rgb(0%,0%,100%);stroke-opacity:1;stroke-miterlimit:10;" d="M 113.40625 139.414062 L 110.554688 152.8125 "/>
<path style="fill:none;stroke-width:1.2;stroke-linecap:butt;stroke-linejoin:miter;stroke:rgb(0%,0%,0%);stroke-opacity:1;stroke-miterlimit:10;" d="M 110.554688 152.8125 L 107.703125 166.207031 "/>
<path style="fill:none;stroke-width:1.2;stroke-linecap:butt;stroke-linejoin:miter;stroke:rgb(0%,0%,100%);stroke-opacity:1;stroke-miterlimit:10;" d="M 113.40625 139.414062 L 126.429688 135.1875 "/>
<path style="fill:none;stroke-width:1.2;stroke-linecap:butt;stroke-linejoin:miter;stroke:rgb(0%,0%,0%);stroke-opacity:1;stroke-miterlimit:10;" d="M 126.429688 135.1875 L 139.457031 130.957031 "/>
<path style=" stroke:none;fill-rule:nonzero;fill:rgb(100%,100%,100%);fill-opacity:1;" d="M 109.40625 132.914062 L 117.40625 132.914062 L 117.40625 145.914062 L 109.40625 145.914062 Z M 109.40625 132.914062 "/>
<g style="fill:rgb(0%,0%,100%);fill-opacity:1;">
  <use xlink:href="#glyph0-1" x="109.40625" y="142.81543"/>
</g>
<path style="fill:none;stroke-width:1.2;stroke-linecap:butt;stroke-linejoin:miter;stroke:rgb(0%,0%,0%);stroke-opacity:1;stroke-miterlimit:10;" d="M 107.703125 166.207031 L 81.652344 174.664062 "/>
<path style="fill:none;stroke-width:1.2;stroke-linecap:butt;stroke-linejoin:miter;stroke:rgb(0%,0%,0%);stroke-opacity:1;stroke-miterlimit:10;" d="M 139.457031 130.957031 L 149.628906 140.125 "/>
<path style="fill:none;stroke-width:1.2;stroke-linecap:butt;stroke-linejoin:miter;stroke:rgb(0%,0%,100%);stroke-opacity:1;stroke-miterlimit:10;" d="M 149.628906 140.125 L 159.804688 149.292969 "/>
<path style="fill:none;stroke-width:1.2;stroke-linecap:butt;stroke-linejoin:miter;stroke:rgb(0%,0%,0%);stroke-opacity:1;stroke-miterlimit:10;" d="M 145.804688 128.003906 L 153.945312 135.335938 "/>
<path style="fill:none;stroke-width:1.2;stroke-linecap:butt;stroke-linejoin:miter;stroke:rgb(0%,0%,100%);stroke-opacity:1;stroke-miterlimit:10;" d="M 153.945312 135.335938 L 162.085938 142.667969 "/>
<path style="fill:none;stroke-width:1.2;stroke-linecap:butt;stroke-linejoin:miter;stroke:rgb(0%,0%,0%);stroke-opacity:1;stroke-miterlimit:10;" d="M 145.15625 104.167969 L 139.457031 130.957031 "/>
<path style="fill:none;stroke-width:1.2;stroke-linecap:butt;stroke-linejoin:miter;stroke:rgb(0%,0%,100%);stroke-opacity:1;stroke-miterlimit:10;" d="M 159.804688 149.292969 L 172.832031 145.0625 "/>
<path style="fill:none;stroke-width:1.2;stroke-linecap:butt;stroke-linejoin:miter;stroke:rgb(0%,0%,0%);stroke-opacity:1;stroke-miterlimit:10;" d="M 172.832031 145.0625 L 185.855469 140.832031 "/>
<path style=" stroke:none;fill-rule:nonzero;fill:rgb(100%,100%,100%);fill-opacity:1;" d="M 155.804688 142.792969 L 163.804688 142.792969 L 163.804688 155.792969 L 155.804688 155.792969 Z M 155.804688 142.792969 "/>
<g style="fill:rgb(0%,0%,100%);fill-opacity:1;">
  <use xlink:href="#glyph0-1" x="155.804688" y="152.694336"/>
</g>
<path style="fill:none;stroke-width:1.2;stroke-linecap:butt;stroke-linejoin:miter;stroke:rgb(0%,0%,0%);stroke-opacity:1;stroke-miterlimit:10;" d="M 185.855469 140.832031 L 188.707031 127.4375 "/>
<path style="fill:none;stroke-width:1.2;stroke-linecap:butt;stroke-linejoin:miter;stroke:rgb(0%,0%,100%);stroke-opacity:1;stroke-miterlimit:10;" d="M 188.707031 127.4375 L 191.558594 114.042969 "/>
<path style="fill:none;stroke-width:1.2;stroke-linecap:butt;stroke-linejoin:miter;stroke:rgb(0%,0%,0%);stroke-opacity:1;stroke-miterlimit:10;" d="M 180.125 136.8125 L 182.40625 126.097656 "/>
<path style="fill:none;stroke-width:1.2;stroke-linecap:butt;stroke-linejoin:miter;stroke:rgb(0%,0%,100%);stroke-opacity:1;stroke-miterlimit:10;" d="M 182.40625 126.097656 L 184.683594 115.382812 "/>
<path style="fill:none;stroke-width:1.2;stroke-linecap:butt;stroke-linejoin:miter;stroke:rgb(0%,0%,0%);stroke-opacity:1;stroke-miterlimit:10;" d="M 185.855469 140.832031 L 206.207031 159.167969 "/>
<path style="fill:none;stroke-width:1.2;stroke-linecap:butt;stroke-linejoin:miter;stroke:rgb(0%,0%,100%);stroke-opacity:1;stroke-miterlimit:10;" d="M 191.558594 114.042969 L 181.382812 104.878906 "/>
<path style="fill:none;stroke-width:1.2;stroke-linecap:butt;stroke-linejoin:miter;stroke:rgb(0%,0%,0%);stroke-opacity:1;stroke-miterlimit:10;" d="M 181.382812 104.878906 L 171.207031 95.710938 "/>
<path style=" stroke:none;fill-rule:nonzero;fill:rgb(100%,100%,100%);fill-opacity:1;" d="M 187.558594 107.542969 L 195.558594 107.542969 L 195.558594 120.542969 L 187.558594 120.542969 Z M 187.558594 107.542969 "/>
<g style="fill:rgb(0%,0%,100%);fill-opacity:1;">
  <use xlink:href="#glyph0-1" x="187.558594" y="117.444336"/>
</g>
<path style="fill:none;stroke-width:1.2;stroke-linecap:butt;stroke-linejoin:miter;stroke:rgb(0%,0%,0%);stroke-opacity:1;stroke-miterlimit:10;" d="M 171.207031 95.710938 L 145.15625 104.167969 "/>
<path style="fill:none;stroke-width:1.2;stroke-linecap:butt;stroke-linejoin:miter;stroke:rgb(0%,0%,0%);stroke-opacity:1;stroke-miterlimit:10;" d="M 170.59375 102.6875 L 149.753906 109.453125 "/>
<path style="fill:none;stroke-width:1.2;stroke-linecap:butt;stroke-linejoin:miter;stroke:rgb(0%,0%,0%);stroke-opacity:1;stroke-miterlimit:10;" d="M 206.207031 159.167969 L 200.503906 185.957031 "/>
<path style="fill:none;stroke-width:1.2;stroke-linecap:butt;stroke-linejoin:miter;stroke:rgb(0%,0%,0%);stroke-opacity:1;stroke-miterlimit:10;" d="M 211.941406 163.1875 L 207.378906 184.617188 "/>
<path style="fill:none;stroke-width:1.2;stroke-linecap:butt;stroke-linejoin:miter;stroke:rgb(0%,0%,0%);stroke-opacity:1;stroke-miterlimit:10;" d="M 232.257812 150.707031 L 206.207031 159.167969 "/>
<path style="fill:none;stroke-width:1.2;stroke-linecap:butt;stroke-linejoin:miter;stroke:rgb(0%,0%,0%);stroke-opacity:1;stroke-miterlimit:10;" d="M 200.503906 185.957031 L 220.855469 204.289062 "/>
<path style="fill:none;stroke-width:1.2;stroke-linecap:butt;stroke-linejoin:miter;stroke:rgb(0%,0%,0%);stroke-opacity:1;stroke-miterlimit:10;" d="M 220.855469 204.289062 L 246.90625 195.832031 "/>
<path style="fill:none;stroke-width:1.2;stroke-linecap:butt;stroke-linejoin:miter;stroke:rgb(0%,0%,0%);stroke-opacity:1;stroke-miterlimit:10;" d="M 221.472656 197.3125 L 242.3125 190.546875 "/>
<path style="fill:none;stroke-width:1.2;stroke-linecap:butt;stroke-linejoin:miter;stroke:rgb(0%,0%,0%);stroke-opacity:1;stroke-miterlimit:10;" d="M 246.90625 195.832031 L 252.609375 169.042969 "/>
<path style="fill:none;stroke-width:1.2;stroke-linecap:butt;stroke-linejoin:miter;stroke:rgb(0%,0%,0%);stroke-opacity:1;stroke-miterlimit:10;" d="M 252.609375 169.042969 L 232.257812 150.707031 "/>
<path style="fill:none;stroke-width:1.2;stroke-linecap:butt;stroke-linejoin:miter;stroke:rgb(0%,0%,0%);stroke-opacity:1;stroke-miterlimit:10;" d="M 246.261719 171.996094 L 229.980469 157.332031 "/>
<path style="fill:none;stroke-width:1.2;stroke-linecap:butt;stroke-linejoin:miter;stroke:rgb(0%,0%,0%);stroke-opacity:1;stroke-miterlimit:10;" d="M 232.257812 150.707031 L 237.960938 123.917969 "/>
<path style="fill:none;stroke-width:1.2;stroke-linecap:butt;stroke-linejoin:miter;stroke:rgb(0%,0%,0%);stroke-opacity:1;stroke-miterlimit:10;" d="M 237.960938 123.917969 L 240.8125 110.523438 "/>
<path style="fill:none;stroke-width:1.2;stroke-linecap:butt;stroke-linejoin:miter;stroke:rgb(20%,80%,80%);stroke-opacity:1;stroke-miterlimit:10;" d="M 240.8125 110.523438 L 243.660156 97.128906 "/>
<path style="fill:none;stroke-width:1.2;stroke-linecap:butt;stroke-linejoin:miter;stroke:rgb(0%,0%,0%);stroke-opacity:1;stroke-miterlimit:10;" d="M 237.960938 123.917969 L 251.355469 126.769531 "/>
<path style="fill:none;stroke-width:1.2;stroke-linecap:butt;stroke-linejoin:miter;stroke:rgb(20%,80%,80%);stroke-opacity:1;stroke-miterlimit:10;" d="M 251.355469 126.769531 L 264.75 129.621094 "/>
<path style="fill:none;stroke-width:1.2;stroke-linecap:butt;stroke-linejoin:miter;stroke:rgb(0%,0%,0%);stroke-opacity:1;stroke-miterlimit:10;" d="M 237.960938 123.917969 L 224.566406 121.070312 "/>
<path style="fill:none;stroke-width:1.2;stroke-linecap:butt;stroke-linejoin:miter;stroke:rgb(20%,80%,80%);stroke-opacity:1;stroke-miterlimit:10;" d="M 224.566406 121.070312 L 211.171875 118.21875 "/>
<path style=" stroke:none;fill-rule:nonzero;fill:rgb(100%,100%,100%);fill-opacity:1;" d="M 240.660156 90.628906 L 247.660156 90.628906 L 247.660156 103.628906 L 240.660156 103.628906 Z M 240.660156 90.628906 "/>
<g style="fill:rgb(20%,80%,80%);fill-opacity:1;">
  <use xlink:href="#glyph0-2" x="240.660156" y="100.530273"/>
</g>
<path style=" stroke:none;fill-rule:nonzero;fill:rgb(100%,100%,100%);fill-opacity:1;" d="M 261.75 123.121094 L 268.75 123.121094 L 268.75 136.121094 L 261.75 136.121094 Z M 261.75 123.121094 "/>
<g style="fill:rgb(20%,80%,80%);fill-opacity:1;">
  <use xlink:href="#glyph0-2" x="261.75" y="133.022461"/>
</g>
<path style=" stroke:none;fill-rule:nonzero;fill:rgb(100%,100%,100%);fill-opacity:1;" d="M 204.171875 111.71875 L 211.171875 111.71875 L 211.171875 124.71875 L 204.171875 124.71875 Z M 204.171875 111.71875 "/>
<g style="fill:rgb(20%,80%,80%);fill-opacity:1;">
  <use xlink:href="#glyph0-2" x="204.171875" y="121.620117"/>
</g>
</g>
</svg>

<svg xmlns="http://www.w3.org/2000/svg" xmlns:xlink="http://www.w3.org/1999/xlink" width="300pt" height="300pt" viewBox="0 0 300 300"><defs><symbol overflow="visible"><path d="M.547 1.938V-7.75h5.5v9.688zm.625-.61h4.266v-8.47H1.171zm0 0"/></symbol><symbol overflow="visible" id="a"><path d="M1.078-8.016h1.47l3.546 6.704v-6.704h1.062V0H5.688L2.124-6.703V0H1.078zm0 0"/></symbol><symbol overflow="visible" id="b"><path d="M1.078-8.016h4.61v.907H2.171v2.36h3.172v.922H2.172V0H1.078zm0 0"/></symbol></defs><g><path fill="#fff" d="M0 0h300v300H0z"/><path d="M35.25 164.79l13.027-4.23" stroke-width="1.2" stroke="#000" stroke-miterlimit="10" fill="none"/><path d="M48.277 160.56L61.3 156.33M61.3 156.332l2.852-13.398" stroke-width="1.2" stroke="#00f" stroke-miterlimit="10" fill="none"/><path d="M64.152 142.934l2.852-13.395M81.652 174.664l-10.175-9.168" stroke-width="1.2" stroke="#000" stroke-miterlimit="10" fill="none"/><path d="M71.477 165.496L61.3 156.332" stroke-width="1.2" stroke="#00f" stroke-miterlimit="10" fill="none"/><path d="M57.3 149.832h8v13h-8zm0 0" fill="#fff"/><use xlink:href="#a" x="57.301" y="159.733" fill="#00f"/><path d="M67.004 129.54l26.05-8.458M93.055 121.082l10.175 9.168" stroke-width="1.2" stroke="#000" stroke-miterlimit="10" fill="none"/><path d="M103.23 130.25l10.176 9.164M113.406 139.414l-2.85 13.4" stroke-width="1.2" stroke="#00f" stroke-miterlimit="10" fill="none"/><path d="M110.555 152.813l-2.852 13.394" stroke-width="1.2" stroke="#000" stroke-miterlimit="10" fill="none"/><path d="M113.406 139.414l13.024-4.226" stroke-width="1.2" stroke="#00f" stroke-miterlimit="10" fill="none"/><path d="M126.43 135.188l13.027-4.23" stroke-width="1.2" stroke="#000" stroke-miterlimit="10" fill="none"/><path d="M109.406 132.914h8v13h-8zm0 0" fill="#fff"/><use xlink:href="#a" x="109.406" y="142.815" fill="#00f"/><path d="M107.703 166.207l-26.05 8.457M139.457 130.957l10.172 9.168" stroke-width="1.2" stroke="#000" stroke-miterlimit="10" fill="none"/><path d="M149.63 140.125l10.175 9.168" stroke-width="1.2" stroke="#00f" stroke-miterlimit="10" fill="none"/><path d="M145.805 128.004l8.14 7.332" stroke-width="1.2" stroke="#000" stroke-miterlimit="10" fill="none"/><path d="M153.945 135.336l8.14 7.332" stroke-width="1.2" stroke="#00f" stroke-miterlimit="10" fill="none"/><path d="M145.156 104.168l-5.7 26.79" stroke-width="1.2" stroke="#000" stroke-miterlimit="10" fill="none"/><path d="M159.805 149.293l13.027-4.23" stroke-width="1.2" stroke="#00f" stroke-miterlimit="10" fill="none"/><path d="M172.832 145.063l13.023-4.23" stroke-width="1.2" stroke="#000" stroke-miterlimit="10" fill="none"/><path d="M155.805 142.793h8v13h-8zm0 0" fill="#fff"/><use xlink:href="#a" x="155.805" y="152.694" fill="#00f"/><path d="M185.855 140.832l2.852-13.394" stroke-width="1.2" stroke="#000" stroke-miterlimit="10" fill="none"/><path d="M188.707 127.438l2.852-13.395" stroke-width="1.2" stroke="#00f" stroke-miterlimit="10" fill="none"/><path d="M180.125 136.813l2.28-10.715" stroke-width="1.2" stroke="#000" stroke-miterlimit="10" fill="none"/><path d="M182.406 126.098l2.278-10.715" stroke-width="1.2" stroke="#00f" stroke-miterlimit="10" fill="none"/><path d="M185.855 140.832l20.352 18.336" stroke-width="1.2" stroke="#000" stroke-miterlimit="10" fill="none"/><path d="M191.56 114.043l-10.177-9.164" stroke-width="1.2" stroke="#00f" stroke-miterlimit="10" fill="none"/><path d="M181.383 104.88l-10.176-9.17" stroke-width="1.2" stroke="#000" stroke-miterlimit="10" fill="none"/><path d="M187.56 107.543h8v13h-8zm0 0" fill="#fff"/><use xlink:href="#a" x="187.559" y="117.444" fill="#00f"/><path d="M171.207 95.71l-26.05 8.458M170.594 102.688l-20.84 6.765M206.207 159.168l-5.703 26.79M211.94 163.188l-4.56 21.43M232.258 150.707l-26.05 8.46M200.504 185.957l20.35 18.332M220.855 204.29l26.05-8.458M221.473 197.313l20.84-6.766M246.906 195.832l5.703-26.79M252.61 169.043l-20.352-18.336M246.262 171.996l-16.282-14.664M232.258 150.707l5.703-26.79M237.96 123.918l2.852-13.395" stroke-width="1.2" stroke="#000" stroke-miterlimit="10" fill="none"/><path d="M240.813 110.523l2.847-13.394" stroke-width="1.2" stroke="#3cc" stroke-miterlimit="10" fill="none"/><path d="M237.96 123.918l13.395 2.852" stroke-width="1.2" stroke="#000" stroke-miterlimit="10" fill="none"/><path d="M251.355 126.77l13.395 2.85" stroke-width="1.2" stroke="#3cc" stroke-miterlimit="10" fill="none"/><path d="M237.96 123.918l-13.394-2.848" stroke-width="1.2" stroke="#000" stroke-miterlimit="10" fill="none"/><path d="M224.566 121.07l-13.394-2.85" stroke-width="1.2" stroke="#3cc" stroke-miterlimit="10" fill="none"/><path d="M240.66 90.63h7v13h-7zm0 0" fill="#fff"/><use xlink:href="#b" x="240.66" y="100.53" fill="#3cc"/><path d="M261.75 123.12h7v13h-7zm0 0" fill="#fff"/><use xlink:href="#b" x="261.75" y="133.022" fill="#3cc"/><path d="M204.172 111.72h7v13h-7zm0 0" fill="#fff"/><use xlink:href="#b" x="204.172" y="121.62" fill="#3cc"/></g></svg>
